wifi-arrow-up.svg

<svg fill="currentColor" viewBox="0 0 24 24"><path d="M12 12c-2.03 0-3.9.67-5.4 1.8l-1.8-2.4C6.81 9.89 9.3 9 12 9s5.19.89 7.2 2.4l-1.28 1.7c-.37.07-.74.17-1.08.31C15.44 12.5 13.78 12 12 12m9-3 1.8-2.4C19.79 4.34 16.05 3 12 3S4.21 4.34 1.2 6.6L3 9c2.5-1.88 5.62-3 9-3s6.5 1.12 9 3m-9 6c-1.35 0-2.6.45-3.6 1.2L12 21l1.04-1.39c-.04-.2-.04-.4-.04-.61 0-1.34.44-2.57 1.19-3.57-.69-.27-1.42-.43-2.19-.43m4 3h2v4h2v-4h2l-3-3z"/></svg>

<svg  viewBox="0 0 24 24" fill="currentColor"><path  d="M12 12C9.97 12 8.1 12.67 6.6 13.8L4.8 11.4C6.81 9.89 9.3 9 12 9S17.19 9.89 19.2 11.4L17.92 13.1C17.55 13.17 17.18 13.27 16.84 13.41C15.44 12.5 13.78 12 12 12M21 9L22.8 6.6C19.79 4.34 16.05 3 12 3S4.21 4.34 1.2 6.6L3 9C5.5 7.12 8.62 6 12 6S18.5 7.12 21 9M12 15C10.65 15 9.4 15.45 8.4 16.2L12 21L13.04 19.61C13 19.41 13 19.21 13 19C13 17.66 13.44 16.43 14.19 15.43C13.5 15.16 12.77 15 12 15M16 18H18V22H20V18H22L19 15L16 18Z"/></svg>
